packages/icons/src/bell-dot-fill.svg

<svg width="24" height="24" viewBox="0 0 24 24" fill="none" xmlns="http://www.w3.org/2000/svg">
<path d="M12.0005 2C12.2352 2 12.4511 2.08087 12.6217 2.21627C12.2267 2.88572 12 3.66639 12 4.5C12 6.98528 14.0147 9 16.5 9C17.0241 9 17.5272 8.91041 17.995 8.74572C17.9983 8.82795 18 8.91061 18 8.99366L18.0009 12.1622C19.1074 12.5533 19.9157 13.5748 19.9938 14.7947L20 14.9889V18.9857L14.8286 18.987L14.8239 19H9.17605L9.17142 18.987L4 18.9857V14.9889C4 13.6837 4.83485 12.5733 6.00009 12.1618L6 8.99366C6 6.02295 8.16238 3.5569 11.0002 3.08127L11.0002 3.00018C11.0001 2.44782 11.4481 2 12.0005 2Z" fill="black"/>
<path d="M14.5 20C14.5 21.3807 13.3807 22.5 12 22.5C10.6193 22.5 9.5 21.3807 9.5 20H14.5Z" fill="black"/>
<path d="M16.5 7C17.8807 7 19 5.88071 19 4.5C19 3.11929 17.8807 2 16.5 2C15.1193 2 14 3.11929 14 4.5C14 5.88071 15.1193 7 16.5 7Z" fill="black"/>
</svg>

<svg xmlns="http://www.w3.org/2000/svg" width="24" height="24" fill="none" viewBox="0 0 24 24">
  <path fill="#000" d="M12 2c.235 0 .451.08.622.216a4.5 4.5 0 0 0 5.373 6.53c.003.082.005.165.005.248v3.168a3 3 0 0 1 1.994 2.633l.006.194v3.997l-5.171.001-.005.013H9.176l-.005-.013L4 18.986v-3.997a3 3 0 0 1 2-2.827V8.994a5.998 5.998 0 0 1 5-5.913v-.08A1 1 0 0 1 12 2Zm2.5 18a2.5 2.5 0 0 1-5 0h5Z"/>
  <path fill="#000" d="M16.5 7a2.5 2.5 0 1 0 0-5 2.5 2.5 0 0 0 0 5Z"/>
</svg>
